COLOR/action 16/16/draw-polygon-star.svg

<svg height="24" width="24" xmlns="http://www.w3.org/2000/svg"><g stroke-width="1.285771" transform="translate(-1.525424 -1.118644)"><path d="m13.526451 4.118614-.844424 1.8082194-.000229-.0008181-.52163 1.0857788s-1.445315-1.2670937 0 0l-1.407373 3.0123289-6.2273713.965753 4.4994866 4.619178-.4417305 2.813014-.2013469 1.126028-.4006397 2.570548 5.5452578-3.092466 5.543203 3.092466-1.043717-6.50959 4.499487-4.619178-6.227372-.965753z" fill="#eab305"/><g transform="translate(1.525424 1.118644)"><path d="m12.001953 3-.845703 1.8085938-.521484 1.0839843-1.4082035 3.0136719-6.2265625.9648438.4238281.4335942 5.8027344-.898438 1.4082035-3.0136719.521484-1.0839843.845703-1.8085938 2.771485 5.90625 5.802734.898438.423828-.4335942-6.226562-.9648438zm-4.5703124 11.919922-.3730468 2.382812-.203125 1.126954-.4003907 2.570312.0859375-.046875.3144532-2.023437.203125-1.126954.4414062-2.8125zm9.1367184 0-.068359.070312.957031 5.960938.087891.048828z" fill="#fff" opacity=".3"/><path d="m3.4238281 9.8046875-.4238281.0664063 4.4316406 4.5488282.0683594-.429688zm17.1523439 0-4.076172 4.1855465.068359.429688 4.431641-4.5488282zm-8.574219 7.6035155-5.4609374 3.044922-.0859375.546875 5.5468749-3.091797 5.542969 3.091797-.087891-.548828z" opacity=".2"/></g></g></svg>

<?xml version="1.0" encoding="UTF-8" standalone="no"?>
<svg
   xmlns:dc="http://purl.org/dc/elements/1.1/"
   xmlns:cc="http://creativecommons.org/ns#"
   xmlns:rdf="http://www.w3.org/1999/02/22-rdf-syntax-ns#"
   xmlns:svg="http://www.w3.org/2000/svg"
   xmlns="http://www.w3.org/2000/svg"
   xmlns:sodipodi="http://sodipodi.sourceforge.net/DTD/sodipodi-0.dtd"
   xmlns:inkscape="http://www.inkscape.org/namespaces/inkscape"
   height="24"
   width="24"
   version="1.1"
   id="svg10"
   sodipodi:docname="draw-star.svg"
   inkscape:version="0.92.4 (5da689c313, 2019-01-14)">
  <metadata
     id="metadata16">
    <rdf:RDF>
      <cc:Work
         rdf:about="">
        <dc:format>image/svg+xml</dc:format>
        <dc:type
           rdf:resource="http://purl.org/dc/dcmitype/StillImage" />
      </cc:Work>
    </rdf:RDF>
  </metadata>
  <defs
     id="defs14" />
  <sodipodi:namedview
     pagecolor="#ffffff"
     bordercolor="#666666"
     borderopacity="1"
     objecttolerance="10"
     gridtolerance="10"
     guidetolerance="10"
     inkscape:pageopacity="0"
     inkscape:pageshadow="2"
     inkscape:window-width="1920"
     inkscape:window-height="1016"
     id="namedview12"
     showgrid="false"
     inkscape:zoom="46.611033"
     inkscape:cx="12"
     inkscape:cy="7.7091855"
     inkscape:window-x="0"
     inkscape:window-y="27"
     inkscape:window-maximized="1"
     inkscape:current-layer="g8" />
  <g
     id="g8"
     transform="translate(-1.5254237,-1.1186441)"
     style="stroke-width:1.57149804">
    <path
       d="m 13.526451,4.118614 -0.844424,1.8082194 -2.29e-4,-8.181e-4 -0.52163,1.0857788 c 0,0 -1.445315,-1.2670937 0,0 l -1.407373,3.0123289 -6.2273713,0.965753 4.4994866,4.619178 -0.4417305,2.813014 -0.2013469,1.126028 -0.4006397,2.570548 5.5452578,-3.092466 5.543203,3.092466 -1.043717,-6.50959 4.499487,-4.619178 -6.227372,-0.965753 z"
       id="path2"
       inkscape:connector-curvature="0"
       style="fill:#eab305;stroke-width:1.28577113" />
    <path
       style="fill:#ffffff;stroke-width:1.28577113;fill-opacity:1;opacity:0.3"
       d="M 12.001953 3 L 11.15625 4.8085938 L 10.634766 5.8925781 L 9.2265625 8.90625 L 3 9.8710938 L 3.4238281 10.304688 L 9.2265625 9.40625 L 10.634766 6.3925781 L 11.15625 5.3085938 L 12.001953 3.5 L 14.773438 9.40625 L 20.576172 10.304688 L 21 9.8710938 L 14.773438 8.90625 L 12.001953 3 z M 7.4316406 14.919922 L 7.0585938 17.302734 L 6.8554688 18.429688 L 6.4550781 21 L 6.5410156 20.953125 L 6.8554688 18.929688 L 7.0585938 17.802734 L 7.5 14.990234 L 7.4316406 14.919922 z M 16.568359 14.919922 L 16.5 14.990234 L 17.457031 20.951172 L 17.544922 21 L 16.568359 14.919922 z "
       transform="translate(1.5254237,1.1186441)"
       id="path823" />
    <path
       style="fill:#000000;stroke-width:1.28577113;fill-opacity:1;opacity:0.2"
       d="M 3.4238281 9.8046875 L 3 9.8710938 L 7.4316406 14.419922 L 7.5 13.990234 L 3.4238281 9.8046875 z M 20.576172 9.8046875 L 16.5 13.990234 L 16.568359 14.419922 L 21 9.8710938 L 20.576172 9.8046875 z M 12.001953 17.408203 L 6.5410156 20.453125 L 6.4550781 21 L 12.001953 17.908203 L 17.544922 21 L 17.457031 20.451172 L 12.001953 17.408203 z "
       transform="translate(1.5254237,1.1186441)"
       id="path828" />
  </g>
</svg>
